src/resources/assets/movie.svg

<svg xmlns="http://www.w3.org/2000/svg" width="16" height="16"><path d="M 13.21875 4.246094 L 7.085938 6.238281 C 7.015625 6.285156 6.933594 6.3125 6.847656 6.316406 L 4.742188 7 L 13.5 7 C 13.777344 7 14 7.222656 14 7.5 L 14 12.5 C 14 13.882812 12.878906 15 11.5 15 L 4.5 15 C 3.121094 15 2 13.882812 2 12.5 L 2 7.5 C 2 7.394531 2.035156 7.292969 2.089844 7.214844 L 1.894531 6.609375 C 1.46875 5.296875 2.1875 3.886719 3.5 3.460938 L 10.15625 1.296875 C 11.46875 0.871094 12.878906 1.589844 13.308594 2.902344 L 13.539062 3.617188 C 13.625 3.878906 13.480469 4.160156 13.21875 4.246094 Z M 9.472656 4.410156 L 10.757812 2.183594 C 10.660156 2.195312 10.5625 2.21875 10.464844 2.25 L 9.222656 2.652344 L 7.914062 4.917969 Z M 11.769531 2.433594 C 11.761719 2.445312 11.757812 2.457031 11.75 2.46875 L 10.894531 3.949219 L 12.433594 3.449219 L 12.355469 3.210938 C 12.25 2.882812 12.039062 2.613281 11.769531 2.433594 Z M 7.800781 3.117188 L 6.238281 3.621094 L 4.929688 5.886719 L 6.492188 5.378906 Z M 2.921875 6.539062 L 3.511719 6.347656 L 4.816406 4.085938 L 3.808594 4.410156 C 3.019531 4.667969 2.589844 5.515625 2.847656 6.300781 Z M 3 8 L 3 12.5 C 3 13.328125 3.671875 14 4.5 14 L 11.5 14 C 12.328125 14 13 13.328125 13 12.5 L 13 8 Z M 3 8" fill="#ddd"/></svg>

<svg xmlns="http://www.w3.org/2000/svg" width="16" height="16"><path d="M13.219 4.246L7.086 6.238a.467.467 0 01-.238.078L4.742 7H13.5c.277 0 .5.223.5.5v5a2.5 2.5 0 01-2.5 2.5h-7A2.5 2.5 0 012 12.5v-5c0-.105.035-.207.09-.285l-.195-.606A2.5 2.5 0 013.5 3.461l6.656-2.164a2.505 2.505 0 013.153 1.605l.23.715a.5.5 0 01-.32.63zm-3.746.164l1.285-2.226a1.582 1.582 0 00-.293.066l-1.242.402-1.309 2.266zm2.297-1.976c-.008.011-.012.023-.02.035l-.855 1.48 1.539-.5-.079-.238a1.474 1.474 0 00-.585-.777zm-3.97.683l-1.562.504L4.93 5.887l1.562-.508zM2.923 6.54l.59-.191 1.304-2.262-1.007.324a1.499 1.499 0 00-.961 1.89zM3 8v4.5A1.5 1.5 0 004.5 14h7a1.5 1.5 0 001.5-1.5V8zm0 0" fill="#ddd"/></svg>
